X:1
T:Title
%%score ( 1 2 ) ( 3 4 )
L:1/8
Q:1/4=106
M:6/8
K:Bb
V:1 treble nm="Grand Piano, Soprano"
V:2 treble 
V:3 bass nm="Choir Pad, Mecklenburg, 76.76.86.86"
V:4 bass 
V:1
 [DF] [DB]2 [DB] [DF]2 | [DF] [EG]2- [EG] [GB]2 | [GB] [Fc]2 [Fc] [Fd]2 | %3
w: By~William~Evander~Penn,~1900 * * *|||
 [Fd] [Fc]2- [Fc]2- [Fc]/ z/ | [Fc] [Fd]2 [DB][DB][Ec] | [Fd] [Ge]2- [Ge] [EG]2 | %6
w: |||
 [Ec] [DB]2 [DF]E-[EG] | [EA] [DB]2- [DB]2- [DB]/ z/ | [DF] [DF]2 [CE] [B,D]2 | %9
w: |||
 [DF] [EB]2 [EG] [DF]2 | [DF] [DB]2 [DB] [FB]2 | [Fd] [Fc]2- [Fc]2- [Fc]/ z/ | %12
w: |||
 [Fd] [DB]2 [DB] [DB]2 | [DF] [EG]2 G [Ge]2 | [Gc] [DB]2 [DB] [EA]2 | [Ec] [DB]2- [DB]3- | %16
w: ||||
 [DB]3 z3 |] %17
w: |
V:2
 x6 | x6 | x6 | x6 | x6 | x6 | z3 z .F2 | x6 | x6 | x6 | x6 | x6 | x6 | x6 | x6 | x6 | x6 |] %17
V:3
 [B,,B,] [B,,F,]2 [B,,F,] [B,,B,]2 | [B,,B,] [E,B,]2- [E,B,] [E,B,]2 | [E,B,] [F,A,]2 [F,A,] B,2 | %3
 B, [F,A,]2- [F,A,]2- [F,A,]/ z/ | [F,A,] [B,,B,]2 [B,,F,] [B,,F,]2 | %5
 [B,,B,] [E,B,]2- [E,B,] [E,B,]2 | [E,G,] F,2 [F,B,]A,B, | [F,C] [B,,B,]2- [B,,B,]2- [B,,B,]/ z/ | %8
 [B,,B,] [B,,B,]2 [B,,F,] [B,,F,]2 | [B,,B,] [E,G,]2 [E,B,] [B,,B,]2 | %10
 [B,,B,] [B,,F,]2 [B,,F,] [B,,B,]2 | [B,,B,] [F,A,]2- [F,A,]2- [F,A,]/ z/ | %12
 [B,,B,] [B,,F,]2 [B,,F,] [B,,F,]2 | [B,,B,] [E,B,]2 [E,B,] [E,B,]2 | %14
 [E,B,] [F,B,]2 [F,B,] [F,C]2 | [F,A,] [B,,B,]2- [B,,B,]3- | [B,,B,]3 z3 |] %17
V:4
 x6 | x6 | x6 | x6 | x6 | x6 | z3 z F,2 | x6 | x6 | x6 | x6 | x6 | x6 | x6 | x6 | x6 | x6 |] %17

